!!!SOCIAL_FUNCTION:	cheyenne war song
!!!PDT:	1936
!!!OTL: No_14_Song_of_the_Weasel_Society.krn
!!!REG: Oklahoma and Montana
!!!LANG: Tone
!!!LING_GROUP: Algonquin
**kern	**kern
*staff2	*staff1
=1-	=1-
*clefF4	*clefF4
*k[f#]	*k[f#]
*M5/8	*M5/8
3...r	4e\
.	8.f#\L
.	16e\L
.	16e\
.	32B\L
.	32B\JJJ
=2	=2
*M3/4	*M3/4
4GG/	2e\
4GG/	.
4GG/	12B\L
.	24A\Jk
.	24r
.	12e\
=3	=3
*M2/4	*M2/4
4GG/	4B\
4GG/	8.A\L
.	16A\Jk
=4	=4
*M3/8	*M3/8
4.r	4A\
.	16G\LL
.	16E\JJ
=5	=5
*M2/4	*M2/4
2r	8G\L
.	16E\L
.	16E\JJ
.	8E\L
.	16E\Jk
.	16r
=6	=6
*M5/8	*M5/8
3...r	4G\
.	8.A\L
.	16G\L
.	16G\
.	16E\JJ
=7	=7
*M3/4	*M3/4
2.r	8G\L
.	16E\L
.	16E\JJ
.	4E\
.	8E\L
.	8D\J
=8	=8
2.r	[2E\
.	8E\L]
.	8E\J
=9	=9
2.r	2E\
.	4r
=10	=10
2.r	4B\
.	8.e\L
.	16e\Jk
.	12B\L
.	24A\Jk
.	24r
.	12e\
=11	=11
*M3/8	*M3/8
4.r	4B\
.	16A\LL
.	16G\JJ
=12	=12
*M2/4	*M2/4
2r	4.A\
.	16G\LL
.	16E\JJ
=13	=13
*M5/8	*M5/8
3...r	(8.G\L
.	16E\Jk)
.	4E\
.	8r
=14	=14
3...r	4G\
.	8.A\L
.	16G\L
.	16G\
.	16E\JJ
=15	=15
*M3/4	*M3/4
2.r	8G\L
.	16E\L
.	16E\JJ
.	4E\
.	8E\L
.	8D\J
=16	=16
2.r	[2E\
.	8E\L]
.	8E\J
=17	=17
2.r	2E\
.	4r
==	==
*-	*-
